picto/tracks-26-fr-small-framed.svg

<svg class="color-immutable" width="30" height="30" viewBox="0 0 30 30" fill="none" xmlns="http://www.w3.org/2000/svg"><path d="M30 0H0V30H30V0Z" fill="#2D327D"/><path d="M25.5 3C26.325 3 27 3.675 27 4.5V25.5C27 26.325 26.325 27 25.5 27H4.5C3.675 27 3 26.325 3 25.5V4.5C3 3.675 3.675 3 4.5 3H25.5ZM25.5 2.625H4.5C3.46613 2.625 2.625 3.46613 2.625 4.5V25.5C2.625 26.5339 3.46613 27.375 4.5 27.375H25.5C26.5339 27.375 27.375 26.5339 27.375 25.5V4.5C27.375 3.46613 26.5339 2.625 25.5 2.625Z" fill="white"/><path d="M14.2755 22.0005V24H6.17749C6.17749 23.39 6.27612 22.808 6.47359 22.2543C6.67092 21.7006 6.94909 21.2238 7.30797 20.8239C7.58479 20.5163 7.90902 20.2163 8.28079 19.9241C8.65249 19.6319 9.39207 19.0962 10.4995 18.3168C11.0379 17.9426 11.4147 17.5939 11.63 17.2709C11.8453 16.948 11.953 16.5737 11.953 16.1481C11.953 15.656 11.8081 15.2573 11.5185 14.9522C11.2288 14.6473 10.8482 14.4947 10.3765 14.4947C9.21777 14.4947 8.62047 15.3279 8.58462 16.9941H6.42364C6.42364 16.8864 6.42364 16.8045 6.42364 16.748C6.42364 15.3843 6.80554 14.3282 7.56949 13.5795C8.31282 12.8516 9.27417 12.4874 10.4534 12.4874C11.4993 12.4874 12.3734 12.7848 13.0758 13.3796C13.8397 14.0255 14.2217 14.8946 14.2217 15.9866C14.2217 16.9403 13.9166 17.7606 13.3065 18.4475C13.1066 18.6732 12.9194 18.854 12.7452 18.9897C12.5708 19.1256 12.1119 19.4525 11.3686 19.9703C10.6611 20.4624 10.1547 20.8393 9.84979 21.1007C9.54469 21.3622 9.26149 21.6621 8.99997 22.0005H14.2755Z" fill="white"/><path d="M23.6301 15.5636H21.4922C21.2922 14.6972 20.8 14.2639 20.0156 14.2639C19.185 14.2639 18.5953 14.7741 18.2468 15.7943C18.1032 16.2096 17.9878 16.8377 17.9007 17.6785C18.2391 17.2223 18.5992 16.8941 18.9812 16.6941C19.3631 16.4942 19.8234 16.3942 20.3616 16.3942C21.4177 16.3942 22.2663 16.7685 22.9071 17.517C23.5172 18.2246 23.8223 19.1116 23.8223 20.1779C23.8223 21.4444 23.412 22.462 22.5918 23.231C21.8535 23.9232 20.9665 24.2693 19.9309 24.2693C18.603 24.2693 17.57 23.7682 16.8317 22.7658C16.0934 21.7635 15.7242 20.3651 15.7242 18.5706C15.7242 16.6532 16.119 15.151 16.9086 14.064C17.6724 13.013 18.7158 12.4874 20.0385 12.4874C21.2844 12.4874 22.238 12.9053 22.8994 13.741C23.2788 14.2229 23.5224 14.8305 23.6301 15.5636ZM19.8234 18.14C19.285 18.14 18.8568 18.3656 18.5391 18.8167C18.2519 19.2166 18.1084 19.6934 18.1084 20.2471C18.1084 20.7957 18.2545 21.2751 18.5468 21.6852C18.8646 22.1416 19.3005 22.3697 19.8542 22.3697C20.3925 22.3697 20.8257 22.1519 21.1539 21.716C21.4615 21.3059 21.6153 20.8214 21.6153 20.2625C21.6153 19.714 21.4768 19.2449 21.2 18.8551C20.8616 18.3783 20.4027 18.14 19.8234 18.14Z" fill="white"/><path d="M8.03591 6L7.28839 8.24865H6.73009L5.99329 6H6.50704L7.01306 7.6842L7.52681 6H8.03591Z" fill="white"/><path d="M8.87413 6.5229C9.11818 6.5229 9.3176 6.6039 9.47248 6.7659C9.62525 6.92588 9.70168 7.13918 9.70168 7.40573C9.70168 7.68158 9.62015 7.90148 9.4571 8.06558C9.30433 8.21835 9.10543 8.29478 8.86033 8.29478C8.59888 8.29478 8.39068 8.20965 8.23588 8.03948C8.0882 7.87748 8.0144 7.66725 8.0144 7.40888C8.0144 7.15455 8.08618 6.94793 8.22973 6.789C8.38865 6.61163 8.60345 6.5229 8.87413 6.5229ZM8.8511 6.87053C8.7332 6.87053 8.63938 6.91823 8.56963 7.01355C8.4989 7.10993 8.4635 7.2417 8.4635 7.40888C8.4635 7.5822 8.49838 7.71495 8.56813 7.80728C8.6399 7.90058 8.73785 7.94723 8.8619 7.94723C8.97778 7.94723 9.06958 7.9047 9.13723 7.81958C9.2141 7.72523 9.25258 7.58835 9.25258 7.40888C9.25258 7.24073 9.21875 7.11 9.15103 7.0167C9.0803 6.91928 8.98033 6.87053 8.8511 6.87053Z" fill="white"/><path d="M10.4491 6V6.40147H10.0031V6H10.4491ZM10.4491 6.57217V8.24873H10.0031V6.57217H10.4491Z" fill="white"/><path d="M12.321 7.72575C12.2975 7.8201 12.2549 7.90875 12.1934 7.99185C12.0457 8.19382 11.8334 8.29485 11.5566 8.29485C11.3064 8.29485 11.1059 8.21587 10.9552 8.058C10.8814 7.98112 10.825 7.88827 10.786 7.7796C10.7439 7.66372 10.7229 7.54275 10.7229 7.4166C10.7229 7.17255 10.7932 6.9675 10.9337 6.80137C11.0906 6.61575 11.2936 6.52297 11.5427 6.52297C11.7437 6.52297 11.915 6.585 12.0565 6.70905C12.158 6.79822 12.2318 6.90825 12.278 7.03897C12.3241 7.1697 12.3472 7.33402 12.3472 7.53195H11.1767C11.1809 7.614 11.1937 7.68217 11.2152 7.73655C11.2757 7.88317 11.3906 7.95652 11.5598 7.95652C11.6428 7.95652 11.7105 7.9383 11.7628 7.90192C11.8151 7.86555 11.8581 7.80682 11.892 7.72582H12.321V7.72575ZM11.8919 7.23202C11.8838 7.15102 11.8653 7.08382 11.8366 7.0305C11.8079 6.97822 11.7671 6.93667 11.7143 6.90592C11.6615 6.87517 11.6039 6.8598 11.5413 6.8598C11.4419 6.8598 11.3598 6.8931 11.2952 6.95977C11.2307 7.02645 11.1922 7.1172 11.1799 7.23202H11.8919Z" fill="white"/></svg>

<svg class="color-immutable" width="30" height="30" viewBox="0 0 30 30" fill="none" xmlns="http://www.w3.org/2000/svg"><g clip-path="url(#a)"><path d="M30 0H0v30h30V0Z" fill="#2D327D"/><path d="M25.5 3c.825 0 1.5.675 1.5 1.5v21c0 .825-.675 1.5-1.5 1.5h-21c-.825 0-1.5-.675-1.5-1.5v-21C3 3.675 3.675 3 4.5 3h21Zm0-.375h-21A1.877 1.877 0 0 0 2.625 4.5v21c0 1.034.841 1.875 1.875 1.875h21a1.877 1.877 0 0 0 1.875-1.875v-21A1.877 1.877 0 0 0 25.5 2.625Z" fill="#fff"/><path d="M14.275 22v2H6.177c0-.61.1-1.192.297-1.746a4.25 4.25 0 0 1 .834-1.43 7.73 7.73 0 0 1 .973-.9c.371-.292 1.111-.828 2.218-1.607.539-.374.916-.723 1.131-1.046.215-.323.323-.697.323-1.123 0-.492-.145-.89-.434-1.196-.29-.305-.67-.457-1.143-.457-1.158 0-1.756.833-1.791 2.5H6.424v-.247c0-1.364.382-2.42 1.145-3.169.744-.727 1.705-1.092 2.884-1.092 1.046 0 1.92.298 2.623.893.764.645 1.146 1.515 1.146 2.607 0 .953-.305 1.774-.915 2.46-.2.226-.388.407-.562.543-.174.136-.633.463-1.376.98-.708.492-1.214.87-1.52 1.13A6.058 6.058 0 0 0 9 22h5.275ZM23.63 15.564h-2.138c-.2-.867-.692-1.3-1.476-1.3-.831 0-1.42.51-1.77 1.53-.143.416-.258 1.044-.345 1.884.338-.456.698-.784 1.08-.984.382-.2.842-.3 1.38-.3 1.057 0 1.905.375 2.546 1.123.61.708.915 1.595.915 2.66 0 1.267-.41 2.285-1.23 3.054-.738.692-1.625 1.038-2.661 1.038-1.328 0-2.361-.5-3.1-1.503-.738-1.002-1.107-2.4-1.107-4.195 0-1.918.395-3.42 1.185-4.507.763-1.051 1.807-1.577 3.13-1.577 1.245 0 2.199.418 2.86 1.254.38.482.623 1.09.731 1.823Zm-3.807 2.576c-.538 0-.966.226-1.284.677-.287.4-.43.876-.43 1.43 0 .549.145 1.028.438 1.438a1.51 1.51 0 0 0 1.307.685c.538 0 .972-.218 1.3-.654.308-.41.461-.895.461-1.454 0-.548-.138-1.017-.415-1.407-.338-.477-.797-.715-1.377-.715ZM8.036 6l-.748 2.249H6.73L5.993 6h.514l.506 1.684L7.527 6h.509ZM8.874 6.523c.244 0 .444.08.598.243.153.16.23.373.23.64 0 .276-.082.495-.245.66a.807.807 0 0 1-.597.229c-.261 0-.47-.085-.624-.256-.148-.162-.222-.372-.222-.63 0-.254.072-.461.216-.62.159-.177.373-.266.644-.266Zm-.023.348a.331.331 0 0 0-.281.143.656.656 0 0 0-.107.395c0 .173.035.306.105.398a.35.35 0 0 0 .294.14.333.333 0 0 0 .275-.127c.077-.095.116-.232.116-.411 0-.168-.034-.299-.102-.392a.349.349 0 0 0-.3-.146ZM10.45 6v.401h-.447V6h.446Zm0 .572V8.25h-.447V6.572h.446ZM12.321 7.726a.75.75 0 0 1-.128.266c-.147.202-.36.303-.636.303-.25 0-.451-.08-.602-.237a.773.773 0 0 1-.169-.278 1.055 1.055 0 0 1-.063-.363c0-.244.07-.45.21-.616a.76.76 0 0 1 .61-.278c.2 0 .372.062.514.186.101.09.175.2.221.33.046.13.07.295.07.493h-1.171c.004.082.017.15.038.205.06.146.176.22.345.22.083 0 .15-.019.203-.055a.39.39 0 0 0 .129-.176h.429Zm-.43-.494a.537.537 0 0 0-.054-.202.337.337 0 0 0-.295-.17c-.1 0-.182.033-.247.1a.447.447 0 0 0-.115.272h.712Z" fill="#fff"/></g><defs><clipPath id="a"><path fill="#fff" d="M0 0h30v30H0z"/></clipPath></defs></svg>
